X:148
T: Jgerlied (2-23), S. 105
N: K1123
O: Luxemburg
S: KINTZELE, Guillaume: An der Ucht, Bd. 2, Luxemburg 1927]
R: Scherz-, Spottlied, Jagd, Liebe]
M: 6/8
L: 1/16
K: Bb
FF | F2F2F2F2G2A2 | B4G2G4
G2 | G2G2G2B2A2G2 | F4B2D4
F2 | F4EEC4BB | B4
d2d2B2B2 | c4ccA2G2A2 | B8z2

@@@ Tune index: 8202
